fs/star_add_28_regular.svg

<svg viewBox="0 0 28 28" fill="none" xmlns="http://www.w3.org/2000/svg" height="1em" width="1em">
  <path d="M12.7013 3.90789C13.2332 2.83018 14.7699 2.83018 15.3018 3.90789L17.9928 9.36041L24.01 10.2348C25.1993 10.4076 25.6742 11.8691 24.8136 12.708L23.7544 13.7405C23.2556 13.4999 22.7261 13.3129 22.1733 13.187L23.6941 11.7046L17.7511 10.841C17.2788 10.7724 16.8705 10.4758 16.6593 10.0478L14.0015 4.66259L11.3438 10.0478C11.1326 10.4758 10.7243 10.7724 10.252 10.841L4.30903 11.7046L8.60941 15.8964C8.95115 16.2296 9.1071 16.7095 9.02642 17.1799L8.01124 23.0988L13 20.4761L13 20.4996C13 21.0427 13.0577 21.5724 13.1674 22.0828L8.61958 24.4737C7.55582 25.0329 6.31254 24.1296 6.5157 22.9451L7.54357 16.9522L3.18947 12.708C2.32887 11.8691 2.80376 10.4076 3.99308 10.2348L10.0103 9.36041L12.7013 3.90789ZM27 20.4996C27 24.0895 24.0899 26.9996 20.5 26.9996C16.9101 26.9996 14 24.0895 14 20.4996C14 16.9098 16.9101 13.9996 20.5 13.9996C24.0899 13.9996 27 16.9098 27 20.4996ZM21 16.4996C21 16.2235 20.7761 15.9996 20.5 15.9996C20.2239 15.9996 20 16.2235 20 16.4996V19.9996H16.5C16.2239 19.9996 16 20.2235 16 20.4996C16 20.7757 16.2239 20.9996 16.5 20.9996H20V24.4996C20 24.7757 20.2239 24.9996 20.5 24.9996C20.7761 24.9996 21 24.7757 21 24.4996V20.9996H24.5C24.7761 20.9996 25 20.7757 25 20.4996C25 20.2235 24.7761 19.9996 24.5 19.9996H21V16.4996Z" fill="#212121"/>
</svg>

<svg viewBox="0 0 28 28" fill="none" xmlns="http://www.w3.org/2000/svg" height="1em" width="1em">
  <path d="M12.701 3.908c.532-1.078 2.069-1.078 2.6 0l2.692 5.452 6.017.875c1.19.173 1.664 1.634.804 2.473l-1.06 1.033a7.441 7.441 0 0 0-1.58-.554l1.52-1.482-5.943-.864a1.45 1.45 0 0 1-1.092-.793l-2.657-5.385-2.658 5.385a1.45 1.45 0 0 1-1.092.793l-5.943.864 4.3 4.191c.342.334.498.813.417 1.284l-1.015 5.919L13 20.476v.024c0 .543.058 1.072.167 1.583l-4.547 2.39c-1.064.56-2.307-.343-2.104-1.528l1.028-5.993-4.355-4.244c-.86-.839-.385-2.3.804-2.473l6.017-.875 2.691-5.452ZM27 20.5a6.5 6.5 0 1 1-13 0 6.5 6.5 0 0 1 13 0Zm-6-4a.5.5 0 0 0-1 0V20h-3.5a.5.5 0 0 0 0 1H20v3.5a.5.5 0 0 0 1 0V21h3.5a.5.5 0 0 0 0-1H21v-3.5Z" fill="#212121"/>
</svg>
